assets/images/googlepay.svg

<?xml version="1.0" encoding="UTF-8"?>
<svg width="425px" height="272px" viewBox="0 0 425 272" version="1.1" xmlns="http://www.w3.org/2000/svg" xmlns:xlink="http://www.w3.org/1999/xlink">
    <!-- Generator: Sketch 52.1 (67048) - http://www.bohemiancoding.com/sketch -->
    <title>GooglePay_mark_800_gray</title>
    <desc>Created with Sketch.</desc>
    <g id="Page-1" stroke="none" stroke-width="1" fill="none" fill-rule="evenodd">
        <g id="GooglePay_mark_800_gray">
            <g id="border">
                <path d="M386.731012,0.0897642745 L38.039747,0.0897642745 C36.587241,0.0897642745 35.1321687,0.0897642745 33.6822289,0.0974583552 C32.4581205,0.107717129 31.2365783,0.120540597 30.0124699,0.153881613 C27.3461205,0.225693033 24.6566747,0.38213934 22.0236867,0.856607648 C19.3496386,1.33620534 16.8603614,2.12100157 14.4326747,3.35718387 C12.0434819,4.57028392 9.85959036,6.15782923 7.96312048,8.05057307 C6.06921687,9.94588161 4.4806988,12.1258711 3.26685542,14.5161655 C2.02991566,16.9423656 1.24463855,19.4301184 0.767313253,22.1050938 C0.289987952,24.739034 0.133445783,27.4242682 0.0615903614,30.0864201 C0.0282289157,31.3097789 0.0128313253,32.5305731 0.00513253012,33.7513672 C-0.00256626506,35.2029838 1.08420217e-19,36.6546003 1.08420217e-19,38.1087816 L1.08420217e-19,233.841064 C1.08420217e-19,235.295246 -0.00256626506,236.744298 0.00513253012,238.198479 C0.0128313253,239.419273 0.0282289157,240.642632 0.0615903614,241.863426 C0.133445783,244.523013 0.289987952,247.210812 0.767313253,249.842188 C1.24463855,252.517163 2.02991566,255.004916 3.26685542,257.43368 C4.4806988,259.82141 6.06921687,262.003964 7.96312048,263.896708 C9.85959036,265.792017 12.0434819,267.379562 14.4326747,268.590097 C16.8603614,269.828844 19.3496386,270.613641 22.0236867,271.095803 C24.6566747,271.565142 27.3461205,271.724153 30.0124699,271.795964 C31.2365783,271.824176 32.4581205,271.842129 33.6822289,271.847258 C35.1321687,271.857517 36.587241,271.857517 38.039747,271.857517 L386.731012,271.857517 C388.180952,271.857517 389.636024,271.857517 391.085964,271.847258 C392.307506,271.842129 393.529048,271.824176 394.758289,271.795964 C397.419506,271.724153 400.108952,271.565142 402.747072,271.095803 C405.418554,270.613641 407.907831,269.828844 410.338084,268.590097 C412.727277,267.379562 414.906036,265.792017 416.805072,263.896708 C418.69641,262.003964 420.284928,259.82141 421.501337,257.43368 C422.740843,255.004916 423.52612,252.517163 424.00088,249.842188 C424.478205,247.210812 424.632181,244.523013 424.704036,241.863426 C424.737398,240.642632 424.752795,239.419273 424.760494,238.198479 C424.770759,236.744298 424.770759,235.295246 424.770759,233.841064 L424.770759,38.1087816 C424.770759,36.6546003 424.770759,35.2029838 424.760494,33.7513672 C424.752795,32.5305731 424.737398,31.3097789 424.704036,30.0864201 C424.632181,27.4242682 424.478205,24.739034 424.00088,22.1050938 C423.52612,19.4301184 422.740843,16.9423656 421.501337,14.5161655 C420.284928,12.1258711 418.69641,9.94588161 416.805072,8.05057307 C414.906036,6.15782923 412.727277,4.57028392 410.338084,3.35718387 C407.907831,2.12100157 405.418554,1.33620534 402.747072,0.856607648 C400.108952,0.38213934 397.419506,0.225693033 394.758289,0.153881613 C393.529048,0.120540597 392.307506,0.107717129 391.085964,0.0974583552 C389.636024,0.0897642745 388.180952,0.0897642745 386.731012,0.0897642745" id="Fill-1" fill="#3C4043"></path>
                <path d="M386.731012,9.14826192 L391.021807,9.155956 C392.181759,9.16365008 393.344277,9.17647355 394.511928,9.20981456 C396.54441,9.26367313 398.923337,9.37395495 401.14059,9.77148245 C403.065289,10.1177161 404.682036,10.646043 406.23206,11.4334039 C407.76412,12.210506 409.165301,13.2312541 410.38941,14.4520482 C411.618651,15.6831011 412.640024,17.0859885 413.427867,18.6324987 C414.213145,20.1713148 414.736663,21.776813 415.083108,23.7157213 C415.478313,25.9085343 415.588663,28.2911346 415.642554,30.3351954 C415.675916,31.4867428 415.691313,32.6408549 415.696446,33.8231786 C415.706711,35.2517129 415.706711,36.6776826 415.706711,38.1087816 L415.706711,233.841064 C415.706711,235.272163 415.706711,236.698133 415.696446,238.154879 C415.691313,239.308991 415.675916,240.463103 415.642554,241.61978 C415.588663,243.658711 415.478313,246.041312 415.077976,248.257207 C414.736663,250.170468 414.213145,251.775966 413.422735,253.322477 C412.637458,254.866422 411.618651,256.266745 410.394542,257.490104 C409.162735,258.721157 407.766687,259.736775 406.216663,260.521572 C404.676904,261.306368 403.065289,261.834695 401.158554,262.175799 C398.895108,262.578456 396.418663,262.691302 394.552988,262.740031 C393.380205,262.768243 392.212554,262.783631 391.014108,262.788761 C389.589831,262.799019 388.157855,262.799019 386.731012,262.799019 L38.039747,262.799019 C38.0217831,262.799019 38.0038193,262.799019 37.9832892,262.799019 C36.5744096,262.799019 35.1603976,262.799019 33.7258554,262.788761 C32.5556386,262.783631 31.387988,262.768243 30.2588313,262.742596 C28.3495301,262.691302 25.8705181,262.578456 23.6276024,262.178364 C21.7029036,261.834695 20.0912892,261.306368 18.531,260.511313 C16.9963735,259.734211 15.6003253,258.718592 14.3685181,257.484974 C13.1469759,256.266745 12.1307349,254.868987 11.3454578,253.322477 C10.5576145,251.778531 10.0315301,250.167904 9.68508434,248.23156 C9.28731325,246.018229 9.17696386,243.648453 9.12050602,241.61978 C9.08971084,240.460539 9.07687952,239.298732 9.06918072,238.147185 L9.06404819,234.741272 L9.06404819,37.2111388 L9.06918072,33.8129199 C9.07687952,32.6511137 9.08971084,31.4918722 9.12050602,30.3326307 C9.17696386,28.3013934 9.28731325,25.9290519 9.69021687,23.6977685 C10.0315301,21.7819424 10.5576145,20.1687501 11.3480241,18.6171105 C12.1281687,17.0834238 13.1469759,15.6831011 14.3736506,14.4571776 C15.597759,13.2312541 17.001506,12.2156354 18.5438313,11.4308392 C20.0861566,10.6434783 21.7029036,10.1177161 23.6276024,9.77148245 C25.8448554,9.37395495 28.2237831,9.26367313 30.2613976,9.20981456 C31.4213494,9.17647355 32.5838675,9.16365008 33.7361205,9.155956 L38.039747,9.14826192 L386.731012,9.14826192" id="wihit-fill" fill="#FFFFFE"></path>
            </g>
            <g id="GPay-logo" transform="translate(48.759036, 76.981132)">
                <g id="Pay" transform="translate(143.569904, 7.624798)" fill="#3C4043">
                    <path d="M12.1771332,57.6434717 L12.1771332,96.3774447 L0.0751674892,96.3774447 L0.0751674892,0.762479784 L32.1716854,0.762479784 C39.9139368,0.609983827 47.4306857,3.58365499 52.9179124,9.07350943 C63.8923658,19.4432345 64.5688732,36.9040216 54.2709272,48.1124744 C53.8199223,48.5699623 53.3689173,49.0274501 52.9179124,49.484938 C47.2803507,54.8985445 40.3649417,57.6434717 32.1716854,57.6434717 L12.1771332,57.6434717 Z M12.1771332,12.5046685 L12.1771332,45.901283 L32.4723553,45.901283 C36.9824047,46.053779 41.342119,44.2238275 44.4239861,40.9451644 C50.7380552,34.3115903 50.5877202,23.6368733 44.0481487,17.2320431 C40.9662816,14.182124 36.8320697,12.5046685 32.4723553,12.5046685 L12.1771332,12.5046685 Z" id="Shape" fill-rule="nonzero"></path>
                    <path d="M89.5244796,28.8217358 C98.4694108,28.8217358 105.535155,31.2616712 110.721712,36.0652938 C115.908268,40.8689164 118.463963,47.5787385 118.463963,56.0422642 L118.463963,96.3774447 L106.88817,96.3774447 L106.88817,87.3039353 L106.361997,87.3039353 C101.325775,94.7762372 94.7110364,98.5123881 86.3674451,98.5123881 C79.3017011,98.5123881 73.2883019,96.3774447 68.5527501,92.107558 C63.8923658,88.1426631 61.2615037,82.2715687 61.4118387,76.0954825 C61.4118387,69.3094124 63.9675333,63.9720539 69.0037551,59.9309111 C74.0399768,55.8897682 80.8050509,53.9073208 89.2238097,53.9073208 C96.4398886,53.9073208 102.302953,55.2797844 106.963337,57.8722156 L106.963337,55.0510404 C106.963337,50.8574016 105.159317,46.8925067 102.002283,44.1475795 C98.7700808,41.2501563 94.6358689,39.6489488 90.351322,39.6489488 C83.586248,39.6489488 78.2493562,42.546372 74.3406468,48.3412183 L63.6668633,41.5551482 C69.3795925,33.0916226 78.0238538,28.8217358 89.5244796,28.8217358 Z M73.8896419,76.3242264 C73.8896419,79.5266415 75.3929916,82.5003127 77.8735188,84.3302642 C80.5795484,86.4652075 83.8869179,87.6089272 87.2694549,87.5326792 C92.3808442,87.5326792 97.266731,85.4739838 100.87477,81.8140809 C104.858647,78.0016819 106.88817,73.5030512 106.88817,68.3181887 C103.129795,65.2682695 97.8680709,63.74331 91.1029969,63.819558 C86.2171101,63.819558 82.0828982,65.0395256 78.7755287,67.4032129 C75.5433266,69.7669003 73.8896419,72.7405714 73.8896419,76.3242264 Z" id="Shape" fill-rule="nonzero"></path>
                    <polygon id="Path" points="184.912023 30.9566792 144.471914 125.122933 131.994111 125.122933 147.027609 92.1838059 120.493485 30.9566792 133.647796 30.9566792 152.815506 77.925434 153.041008 77.925434 171.757713 30.9566792"></polygon>
                </g>
                <g id="Super-G">
                    <path d="M106.813002,56.8809919 C106.813002,53.144841 106.512332,49.40869 105.910992,45.7487871 L54.8722671,45.7487871 L54.8722671,66.8694771 L84.1124204,66.8694771 C82.9097406,73.6555472 79.0010311,79.7553854 73.2883019,83.5677844 L73.2883019,97.2924205 L90.7271594,97.2924205 C100.949938,87.7614232 106.813002,73.6555472 106.813002,56.8809919 Z" id="Path" fill="#4285F4"></path>
                    <path d="M54.8722671,110.559569 C69.45476,110.559569 81.7822282,105.679698 90.7271594,97.2924205 L73.2883019,83.5677844 C68.4024152,86.9226954 62.1635136,88.8288949 54.8722671,88.8288949 C40.7407791,88.8288949 28.7891484,79.1454016 24.5046015,66.1832453 L6.53957156,66.1832453 L6.53957156,80.3653693 C15.7100052,98.893628 34.42671,110.559569 54.8722671,110.559569 Z" id="Path" fill="#34A853"></path>
                    <path d="M24.5046015,66.1832453 C22.2495768,59.3971752 22.2495768,52.0011213 24.5046015,45.1388032 L24.5046015,31.0329272 L6.53957156,31.0329272 C-1.20267983,46.5112668 -1.20267983,64.8107817 6.53957156,80.2891213 L24.5046015,66.1832453 Z" id="Path" fill="#FBBC04"></path>
                    <path d="M54.8722671,22.4931536 C62.6145185,22.3406577 70.0560999,25.3143288 75.6184941,30.7279353 L91.1029969,15.0208518 C81.2560558,5.71859838 68.3272477,0.609983827 54.8722671,0.762479784 C34.42671,0.762479784 15.7100052,12.5046685 6.53957156,31.0329272 L24.5046015,45.2150512 C28.7891484,32.1766469 40.7407791,22.4931536 54.8722671,22.4931536 Z" id="Path" fill="#EA4335"></path>
                </g>
            </g>
        </g>
    </g>
</svg>

<svg width="425" height="272" xmlns="http://www.w3.org/2000/svg"><g fill="none" fill-rule="evenodd"><path d="M386.731.09H38.04c-1.453 0-2.908 0-4.358.007-1.224.01-2.445.024-3.67.057-2.666.072-5.355.228-7.988.703-2.674.48-5.164 1.264-7.591 2.5A25.465 25.465 0 003.267 14.516c-1.237 2.426-2.022 4.914-2.5 7.59-.477 2.633-.634 5.318-.705 7.98a174.803 174.803 0 00-.057 3.665C-.003 35.203 0 36.655 0 38.11v195.73c0 1.454-.003 2.903.005 4.357.008 1.221.023 2.445.057 3.665.071 2.66.228 5.348.705 7.98.478 2.674 1.263 5.162 2.5 7.59a25.451 25.451 0 004.696 6.464 25.4 25.4 0 006.47 4.693c2.427 1.239 4.917 2.024 7.59 2.506 2.634.47 5.323.628 7.99.7 1.224.028 2.445.046 3.67.051 1.45.01 2.904.01 4.357.01h348.69c1.45 0 2.905 0 4.355-.01 1.222-.005 2.443-.023 3.672-.051 2.662-.072 5.351-.23 7.99-.7 2.67-.482 5.16-1.267 7.59-2.506a25.432 25.432 0 006.467-4.693 25.576 25.576 0 004.696-6.463c1.24-2.43 2.025-4.917 2.5-7.592.477-2.631.631-5.319.703-7.979.033-1.22.049-2.444.056-3.665.01-1.454.01-2.903.01-4.357V38.11c0-1.454 0-2.906-.01-4.358a174.8 174.8 0 00-.056-3.665c-.072-2.662-.226-5.347-.703-7.98-.475-2.676-1.26-5.164-2.5-7.59a25.59 25.59 0 00-4.696-6.465 25.556 25.556 0 00-6.467-4.694c-2.43-1.236-4.92-2.02-7.59-2.5-2.639-.475-5.328-.631-7.99-.703-1.229-.033-2.45-.046-3.672-.057-1.45-.007-2.905-.007-4.355-.007" fill="#3C4043"/><path d="M386.731 9.148l4.29.008c1.16.008 2.323.02 3.49.054 2.033.054 4.412.164 6.63.561 1.924.347 3.541.875 5.091 1.662a16.396 16.396 0 014.157 3.019 16.512 16.512 0 013.039 4.18c.785 1.54 1.309 3.145 1.655 5.084.395 2.193.506 4.575.56 6.62.033 1.15.048 2.305.053 3.487.01 1.429.01 2.855.01 4.286V233.84c0 1.431 0 2.857-.01 4.314-.005 1.154-.02 2.308-.053 3.465-.054 2.039-.165 4.421-.565 6.637-.341 1.913-.865 3.519-1.655 5.065a16.38 16.38 0 01-3.028 4.168 16.308 16.308 0 01-4.178 3.032c-1.54.784-3.152 1.313-5.058 1.654-2.264.402-4.74.515-6.606.564-1.173.028-2.34.044-3.539.049-1.424.01-2.856.01-4.283.01H37.983c-1.409 0-2.823 0-4.257-.01a190.26 190.26 0 01-3.467-.046c-1.91-.052-4.388-.165-6.631-.565-1.925-.343-3.537-.872-5.097-1.667a16.233 16.233 0 01-4.162-3.026 16.262 16.262 0 01-3.024-4.163c-.787-1.543-1.313-3.154-1.66-5.09-.398-2.214-.508-4.584-.564-6.612a174.96 174.96 0 01-.052-3.473l-.005-3.406V37.211l.005-3.398c.008-1.162.02-2.321.052-3.48.056-2.032.166-4.404.57-6.635.34-1.916.867-3.53 1.657-5.08a16.37 16.37 0 013.026-4.16 16.372 16.372 0 014.17-3.027c1.542-.788 3.159-1.313 5.084-1.66 2.217-.397 4.596-.507 6.633-.561a155.62 155.62 0 013.475-.054l4.304-.008h348.69" fill="#FFFFFE"/><g fill="#3C4043"><path d="M204.506 142.25v38.733h-12.102V85.368h32.097c7.742-.152 15.259 2.822 20.746 8.311 10.974 10.37 11.65 27.831 1.353 39.04l-1.353 1.372c-5.638 5.413-12.553 8.158-20.746 8.158h-19.995zm0-45.14v33.397h20.295c4.51.153 8.87-1.677 11.952-4.956 6.314-6.633 6.164-17.308-.376-23.713-3.082-3.05-7.216-4.727-11.576-4.727h-20.295zm77.347 16.318c8.945 0 16.011 2.44 21.198 7.243 5.186 4.804 7.742 11.514 7.742 19.977v40.335h-11.576v-9.073h-.526c-5.036 7.472-11.651 11.208-19.995 11.208-7.065 0-13.079-2.135-17.814-6.405a20.346 20.346 0 01-7.141-16.012c0-6.786 2.555-12.123 7.592-16.164 5.036-4.041 11.801-6.024 20.22-6.024 7.216 0 13.079 1.373 17.74 3.965v-2.821a14.42 14.42 0 00-4.962-10.903c-3.232-2.898-7.366-4.5-11.65-4.5-6.766 0-12.103 2.898-16.011 8.693l-10.674-6.786c5.713-8.463 14.357-12.733 25.857-12.733zM266.22 160.93c0 3.203 1.503 6.176 3.983 8.006 2.706 2.135 6.014 3.279 9.396 3.203 5.112 0 9.998-2.06 13.606-5.719 3.984-3.812 6.013-8.311 6.013-13.496-3.758-3.05-9.02-4.575-15.785-4.499-4.886 0-9.02 1.22-12.328 3.584-3.232 2.364-4.885 5.338-4.885 8.921z" fill-rule="nonzero"/><path d="M377.241 115.563l-40.44 94.166h-12.478l15.034-32.94-26.535-61.226h13.155l19.167 46.968h.226l18.717-46.968z"/></g><path d="M155.572 133.862c0-3.736-.3-7.472-.902-11.132h-51.039v21.12h29.24c-1.202 6.787-5.11 12.887-10.824 16.699v13.725h17.44c10.222-9.531 16.085-23.637 16.085-40.412z" fill="#4285F4"/><path d="M103.631 187.54c14.583 0 26.91-4.88 35.855-13.266l-17.439-13.725c-4.886 3.355-11.124 5.261-18.416 5.261-14.131 0-26.083-9.683-30.367-22.646H55.299v14.183c9.17 18.528 27.887 30.194 48.332 30.194z" fill="#34A853"/><path d="M73.264 143.164c-2.255-6.786-2.255-14.182 0-21.044v-14.106H55.299a55.131 55.131 0 000 49.256l17.965-14.106z" fill="#FBBC04"/><path d="M103.631 99.474c7.743-.152 15.184 2.821 20.747 8.235l15.484-15.707c-9.847-9.302-22.776-14.41-36.23-14.258-20.446 0-39.163 11.742-48.333 30.27l17.965 14.182c4.284-13.038 16.236-22.722 30.367-22.722z" fill="#EA4335"/></g></svg>
